X:1
T:Title
%%score 1 { 2 | 3 }
L:1/8
Q:1/4=100
M:4/4
K:E
V:1 treble nm="Grand Piano, Soprano"
V:2 bass nm="Choir Pad, Landes, D. P. Airhart"
V:3 bass 
V:1
 E2 [EG]2- [EG][EG] [DF]>E | [DF]>[EG] E6 | [B,E]2 [B,F]2- [B,F][B,F] [EG]>[EF] | %3
w: By~D.~P.~Airhart,~1888 * * * * *|||
 [EG]>[E^A] [DB]6 | [DA]2 [EG]2- [EG][EG][EG]E | [DF][=DG] [CA]6 | [Ec]2 [EB]2- [EB][EA][EG]E | %7
w: ||||
 [DF]>[DG] E6 | [GB]2 [Ae]2- [Ae][Ad][Ac][AB] | [Ac][Ae] [GB]6 | [GB]2 [Ae]2- [Ae][Ad][Ac][AB] | %11
w: ||||
 [Ac][Ae] [GB]6 | [DA]2 [EG]2- [EG][EG][EG]E | [DF][=DG] [CA]6 | [Ec]2 [EB]2- [EB][EA][EG]E | %15
w: ||||
 [DF]>[DG] E6- | E2 z2 z4 |] %17
w: ||
V:2
 G,2 B,2- B,B, A,>G, | A,>B, G,6 | G,2 F,2- F,F, F,>F, | F,>F, F,6 | B,2 B,2- B,B,B,G, | A,E, E,6 | %6
 A,2 G,2- G,F,E,G, | A,>B, G,6 | B,2[K:treble] C2- CDEE | EE C6 | E2 C2- CDEE | EE E6 | %12
 B,2 B,2- B,B,B,G, | A,E, E,6 | A,2 G,2- G,F,E,G, | A,>B, G,6- | G,2 z2 z4 |] %17
V:3
 E,2 E,2- E,E, B,,>B,, | B,,>B,, E,6 | E,2 D,2- D,D, C,>C, | z2 B,,6 | B,,2 E,2- E,E,E,=D, | %5
 C,B,, A,,6 | A,,2 B,,2- B,,B,,B,,B,, | B,,>B,, E,6 | E,2 A,,2- A,,A,,A,,A,, | A,,C, E,2 G,2 B,2 | %10
 E,2 A,,2- A,,A,,A,,A,, | A,,C, E,2 G,2 B,2 | B,,2 E,2- E,E,E,=D, | C,B,, A,,6 | %14
 A,,2 B,,2- B,,B,,B,,B,, | B,,>B,, E,6- | E,2 z2 z4 |] %17

